svgs/1F475-1F3FE.svg

<svg xmlns="http://www.w3.org/2000/svg" xmlns:xlink="http://www.w3.org/1999/xlink" preserveAspectRatio="none" viewBox="0 0 72 72"><defs><path id="a" fill="#7A4C32" d="M106.9 66.05h-3.6v20.3q4.75 0 7.85-2.4 3.6-2.8 3.6-8.05 0-5.3-3.9-8.1l-3.95-1.75z"/><path id="b" fill="#7A4C32" d="M24.7 66.05h-3.65l-3.9 1.75q-3.95 2.8-3.95 8.1 0 5.25 3.6 8.05 3.1 2.4 7.9 2.4v-20.3z"/><path id="c" fill="#AD6F43" d="M59.95 41.3q0-16.15-5-23.95Q49.25 8.4 36 8.4t-19.1 9.05q-5.1 7.95-5.1 24.05 0 13.5 8.7 21.1 7 6.1 15.5 6.1 8.45 0 15.35-6.2 8.6-7.7 8.6-21.2z"/><path id="j" fill="#BDBDBD" d="M81.55 28.1q7.35-4.5 7.35-10.85T81.55 6.4Q74.2 1.9 63.8 1.9T46.1 6.4q-7.35 4.5-7.35 10.85T46.1 28.1q7.3 4.5 17.7 4.5 10.4 0 17.75-4.5z"/><path id="k" fill="#E1F5FE" d="M40.15 72.35q-1.7 2-1.7 4.85 0 2.9 1.7 4.9 1.65 2 4.05 2 2.35 0 4.05-2 1.65-2.05 1.65-4.9 0-2.85-1.65-4.85-1.7-2.05-4.05-2.05-2.4 0-4.05 2.05z"/><path id="l" fill="#E1F5FE" d="M87.85 72.35q-1.7-2.05-4.05-2.05-2.4 0-4.05 2.05-1.7 2-1.7 4.85 0 2.85 1.7 4.9 1.65 2 4.05 2 2.35 0 4.05-2 1.65-2 1.65-4.9 0-2.85-1.65-4.85z"/><path id="m" fill="#E1F5FE" d="M63.95 108.75q4.9 0 9-2.15 3.2-1.7 4.5-3.7.7-1.05.35-1.7-.35-.65-1.45-.65H51.6q-1.1 0-1.45.65-.35.65.35 1.7 1.3 2 4.5 3.7 4.1 2.15 8.95 2.15z"/><path id="n" fill="#E1F5FE" d="M58 90q-.65-.15-.9.3-.3.4-.05.9.7 1.15 2.4 2.2 2.2 1.35 4.55 1.35 2.35 0 4.5-1.35 1.7-1.05 2.4-2.2.25-.5 0-.9-.3-.45-.95-.3-3.15.9-5.95.9-2.85 0-6-.9z"/><path id="o" fill="#444" d="M40.15 72.35q-1.7 2-1.7 4.85 0 2.9 1.7 4.9 1.65 2 4.05 2 2.35 0 4.05-2 1.65-2.05 1.65-4.9 0-2.85-1.65-4.85-1.7-2.05-4.05-2.05-2.4 0-4.05 2.05z"/><path id="p" fill="#444" d="M87.85 72.35q-1.7-2.05-4.05-2.05-2.4 0-4.05 2.05-1.7 2-1.7 4.85 0 2.85 1.7 4.9 1.65 2 4.05 2 2.35 0 4.05-2 1.65-2 1.65-4.9 0-2.85-1.65-4.85z"/><path id="q" fill="#513F35" d="M63.95 108.75q4.9 0 9-2.15 3.2-1.7 4.5-3.7.7-1.05.35-1.7-.35-.65-1.45-.65H51.6q-1.1 0-1.45.65-.35.65.35 1.7 1.3 2 4.5 3.7 4.1 2.15 8.95 2.15z"/><path id="r" fill="#7A4C32" d="M58 90q-.65-.15-.9.3-.3.4-.05.9.7 1.15 2.4 2.2 2.2 1.35 4.55 1.35 2.35 0 4.5-1.35 1.7-1.05 2.4-2.2.25-.5 0-.9-.3-.45-.95-.3-3.15.9-5.95.9-2.85 0-6-.9z"/><path id="s" fill="#E0E0E0" d="M42.75 45.6q1.65-.5 6.2-1.65 4.5-1.2 7.35-2.55Q65 37.3 65 29.6v-16Q65 10 60.5 9q-4.1-.9-10.55.65-6.5 1.5-12.5 4.8-6.5 3.55-10.1 7.9-7.1 8.6-9.2 22.9-2 13.45.95 27.05.25 1.2 1.5 1.2 1.25-.05 1.45-1.25 1.8-9.15 6.85-16.2 5.7-7.9 13.85-10.45z"/><path id="t" fill="#E0E0E0" d="M100.6 22.35Q97 18 90.5 14.45q-6-3.3-12.45-4.8-6.5-1.55-10.6-.65Q63 10 63 13.6v16q0 7.7 8.65 11.8 4.75 2.2 13.6 4.2 8.1 2.55 13.8 10.45 5.05 7.05 6.85 16.2.25 1.2 1.45 1.25 1.25 0 1.5-1.2 2.95-13.6 1-27.05-2.15-14.3-9.25-22.9z"/><path id="d" fill="none" stroke="#7A4C32" stroke-linecap="round" stroke-linejoin="round" stroke-opacity=".498" stroke-width="1.5" d="M27.794 30q7.959-1.912 15.862 0"/><path id="e" fill="none" stroke="#7A4C32" stroke-linecap="round" stroke-linejoin="round" stroke-opacity=".498" stroke-width="1.5" d="M26.894 35.134q8.83-2.109 17.634 0"/><path id="f" fill="none" stroke="#7A4C32" stroke-linecap="round" stroke-linejoin="round" stroke-opacity=".498" stroke-width="1.5" d="M28.35 52.194q-1.182.618-2.503 2.025-2.644 2.756-3.403 6.552"/><path id="g" fill="none" stroke="#7A4C32" stroke-linecap="round" stroke-linejoin="round" stroke-opacity=".498" stroke-width="1.5" d="M28.956 47.244q-.366.703-1.21 1.406-1.63 1.378-3.852 1.378"/><path id="h" fill="none" stroke="#7A4C32" stroke-linecap="round" stroke-linejoin="round" stroke-opacity=".498" stroke-width="1.5" d="M43.094 52.194q1.18.618 2.503 2.025 2.643 2.756 3.402 6.552"/><path id="i" fill="none" stroke="#7A4C32" stroke-linecap="round" stroke-linejoin="round" stroke-opacity=".498" stroke-width="1.5" d="M42.544 47.244q.365.703 1.18 1.406 1.66 1.378 3.882 1.378"/></defs><use transform="scale(.56245)" xlink:href="#a"/><use transform="scale(.56245)" xlink:href="#b"/><use xlink:href="#c"/><use transform="matrix(1 0 0 1 .007 .02)" xlink:href="#d"/><use transform="matrix(1 0 0 1 .007 .007)" xlink:href="#e"/><use transform="matrix(1 0 0 1 .002 .026)" xlink:href="#f"/><use transform="matrix(1 0 0 1 .017 .026)" xlink:href="#g"/><use transform="matrix(1 0 0 1 .01 .026)" xlink:href="#h"/><use transform="matrix(1 0 0 1 .022 .026)" xlink:href="#i"/><use transform="scale(.56248)" xlink:href="#j"/><use transform="scale(.56248)" xlink:href="#k"/><use transform="scale(.56248)" xlink:href="#l"/><use transform="scale(.56248)" xlink:href="#m"/><use transform="scale(.56248)" xlink:href="#n"/><use transform="scale(.56248)" xlink:href="#o"/><use transform="scale(.56248)" xlink:href="#p"/><use transform="scale(.56248)" xlink:href="#q"/><use transform="scale(.56248)" xlink:href="#r"/><use transform="scale(.56248)" xlink:href="#s"/><use transform="scale(.56248)" xlink:href="#t"/></svg>

<svg xmlns="http://www.w3.org/2000/svg" version="1.1" xmlns:xlink="http://www.w3.org/1999/xlink" preserveAspectRatio="none" x="0px" y="0px" width="72px" height="72px" viewBox="0 0 72 72">
<defs>
<g id="Layer0_0_MEMBER_0_MEMBER_0_FILL">
<path fill="#7A4C32" stroke="none" d="
M 106.9 66.05
L 103.3 66.05 103.3 86.35
Q 108.05 86.35 111.15 83.95 114.75 81.15 114.75 75.9 114.75 70.6 110.85 67.8
L 106.9 66.05 Z"/>
</g>

<g id="Layer0_0_MEMBER_0_MEMBER_1_FILL">
<path fill="#7A4C32" stroke="none" d="
M 24.7 66.05
L 21.05 66.05 17.15 67.8
Q 13.2 70.6 13.2 75.9 13.2 81.15 16.8 83.95 19.9 86.35 24.7 86.35
L 24.7 66.05 Z"/>
</g>

<g id="Layer0_0_MEMBER_1_FILL">
<path fill="#AD6F43" stroke="none" d="
M 59.95 41.3
Q 59.95 25.15 54.95 17.35 49.25 8.4 36 8.4 22.75 8.4 16.9 17.45 11.8 25.4 11.8 41.5 11.8 55 20.5 62.6 27.5 68.7 36 68.7 44.45 68.7 51.35 62.5 59.95 54.8 59.95 41.3 Z"/>
</g>

<g id="Layer0_0_MEMBER_5_FILL">
<path fill="#BDBDBD" stroke="none" d="
M 81.55 28.1
Q 88.9 23.6 88.9 17.25 88.9 10.9 81.55 6.4 74.2 1.9 63.8 1.9 53.4 1.9 46.1 6.4 38.75 10.9 38.75 17.25 38.75 23.6 46.1 28.1 53.4 32.6 63.8 32.6 74.2 32.6 81.55 28.1 Z"/>
</g>

<g id="Layer0_0_MEMBER_6_FILL">
<path fill="#E1F5FE" stroke="none" d="
M 40.15 72.35
Q 38.45 74.35 38.45 77.2 38.45 80.1 40.15 82.1 41.8 84.1 44.2 84.1 46.55 84.1 48.25 82.1 49.9 80.05 49.9 77.2 49.9 74.35 48.25 72.35 46.55 70.3 44.2 70.3 41.8 70.3 40.15 72.35 Z"/>
</g>

<g id="Layer0_0_MEMBER_7_FILL">
<path fill="#E1F5FE" stroke="none" d="
M 87.85 72.35
Q 86.15 70.3 83.8 70.3 81.4 70.3 79.75 72.35 78.05 74.35 78.05 77.2 78.05 80.05 79.75 82.1 81.4 84.1 83.8 84.1 86.15 84.1 87.85 82.1 89.5 80.1 89.5 77.2 89.5 74.35 87.85 72.35 Z"/>
</g>

<g id="Layer0_0_MEMBER_8_FILL">
<path fill="#E1F5FE" stroke="none" d="
M 63.95 108.75
Q 68.85 108.75 72.95 106.6 76.15 104.9 77.45 102.9 78.15 101.85 77.8 101.2 77.45 100.55 76.35 100.55
L 51.6 100.55
Q 50.5 100.55 50.15 101.2 49.8 101.85 50.5 102.9 51.8 104.9 55 106.6 59.1 108.75 63.95 108.75 Z"/>
</g>

<g id="Layer0_0_MEMBER_9_FILL">
<path fill="#E1F5FE" stroke="none" d="
M 58 90
Q 57.35 89.85 57.1 90.3 56.8 90.7 57.05 91.2 57.75 92.35 59.45 93.4 61.65 94.75 64 94.75 66.35 94.75 68.5 93.4 70.2 92.35 70.9 91.2 71.15 90.7 70.9 90.3 70.6 89.85 69.95 90 66.8 90.9 64 90.9 61.15 90.9 58 90 Z"/>
</g>

<g id="Layer0_0_MEMBER_10_FILL">
<path fill="#444444" stroke="none" d="
M 40.15 72.35
Q 38.45 74.35 38.45 77.2 38.45 80.1 40.15 82.1 41.8 84.1 44.2 84.1 46.55 84.1 48.25 82.1 49.9 80.05 49.9 77.2 49.9 74.35 48.25 72.35 46.55 70.3 44.2 70.3 41.8 70.3 40.15 72.35 Z"/>
</g>

<g id="Layer0_0_MEMBER_11_FILL">
<path fill="#444444" stroke="none" d="
M 87.85 72.35
Q 86.15 70.3 83.8 70.3 81.4 70.3 79.75 72.35 78.05 74.35 78.05 77.2 78.05 80.05 79.75 82.1 81.4 84.1 83.8 84.1 86.15 84.1 87.85 82.1 89.5 80.1 89.5 77.2 89.5 74.35 87.85 72.35 Z"/>
</g>

<g id="Layer0_0_MEMBER_12_FILL">
<path fill="#513F35" stroke="none" d="
M 63.95 108.75
Q 68.85 108.75 72.95 106.6 76.15 104.9 77.45 102.9 78.15 101.85 77.8 101.2 77.45 100.55 76.35 100.55
L 51.6 100.55
Q 50.5 100.55 50.15 101.2 49.8 101.85 50.5 102.9 51.8 104.9 55 106.6 59.1 108.75 63.95 108.75 Z"/>
</g>

<g id="Layer0_0_MEMBER_13_FILL">
<path fill="#7A4C32" stroke="none" d="
M 58 90
Q 57.35 89.85 57.1 90.3 56.8 90.7 57.05 91.2 57.75 92.35 59.45 93.4 61.65 94.75 64 94.75 66.35 94.75 68.5 93.4 70.2 92.35 70.9 91.2 71.15 90.7 70.9 90.3 70.6 89.85 69.95 90 66.8 90.9 64 90.9 61.15 90.9 58 90 Z"/>
</g>

<g id="Layer0_0_MEMBER_14_FILL">
<path fill="#E0E0E0" stroke="none" d="
M 42.75 45.6
Q 44.4 45.1 48.95 43.95 53.45 42.75 56.3 41.4 65 37.3 65 29.6
L 65 13.6
Q 65 10 60.5 9 56.4 8.1 49.95 9.65 43.45 11.15 37.45 14.45 30.95 18 27.35 22.35 20.25 30.95 18.15 45.25 16.15 58.7 19.1 72.3 19.35 73.5 20.6 73.5 21.85 73.45 22.05 72.25 23.85 63.1 28.9 56.05 34.6 48.15 42.75 45.6 Z"/>
</g>

<g id="Layer0_0_MEMBER_15_FILL">
<path fill="#E0E0E0" stroke="none" d="
M 100.6 22.35
Q 97 18 90.5 14.45 84.5 11.15 78.05 9.65 71.55 8.1 67.45 9 63 10 63 13.6
L 63 29.6
Q 63 37.3 71.65 41.4 76.4 43.6 85.25 45.6 93.35 48.15 99.05 56.05 104.1 63.1 105.9 72.25 106.15 73.45 107.35 73.5 108.6 73.5 108.85 72.3 111.8 58.7 109.85 45.25 107.7 30.95 100.6 22.35 Z"/>
</g>

<path id="Layer0_0_MEMBER_2_MEMBER_0_1_STROKES" stroke="#7A4C32" stroke-opacity="0.4980392156862745" stroke-width="1.5" stroke-linejoin="round" stroke-linecap="round" fill="none" d="
M 27.793727111816406 29.999951171875
Q 35.75288619995117 28.08750305175781 43.65579681396484 29.999951171875"/>

<path id="Layer0_0_MEMBER_3_MEMBER_0_1_STROKES" stroke="#7A4C32" stroke-opacity="0.4980392156862745" stroke-width="1.5" stroke-linejoin="round" stroke-linecap="round" fill="none" d="
M 26.893727111816407 35.13432388305664
Q 35.724737548828124 33.02500610351562 44.5276237487793 35.13432388305664"/>

<path id="Layer0_0_MEMBER_4_MEMBER_0_MEMBER_0_1_STROKES" stroke="#7A4C32" stroke-opacity="0.4980392156862745" stroke-width="1.5" stroke-linejoin="round" stroke-linecap="round" fill="none" d="
M 28.34945068359375 52.19368133544922
Q 27.168296813964844 52.812380981445315 25.846529388427737 54.21851654052735 23.20299453735352 56.974542236328126 22.44368133544922 60.77110824584961"/>

<path id="Layer0_0_MEMBER_4_MEMBER_0_MEMBER_1_1_STROKES" stroke="#7A4C32" stroke-opacity="0.4980392156862745" stroke-width="1.5" stroke-linejoin="round" stroke-linecap="round" fill="none" d="
M 28.955769348144532 47.24368133544922
Q 28.5901741027832 47.94674911499023 27.746492767333983 48.64981689453125 26.115375518798828 50.02782974243164 23.89368133544922 50.02782974243164"/>

<path id="Layer0_0_MEMBER_4_MEMBER_1_MEMBER_0_1_STROKES" stroke="#7A4C32" stroke-opacity="0.4980392156862745" stroke-width="1.5" stroke-linejoin="round" stroke-linecap="round" fill="none" d="
M 43.09368133544922 52.19368133544922
Q 44.274835205078126 52.812380981445315 45.59660263061524 54.21851654052735 48.24013748168945 56.974542236328126 48.99945068359375 60.77110824584961"/>

<path id="Layer0_0_MEMBER_4_MEMBER_1_MEMBER_1_1_STROKES" stroke="#7A4C32" stroke-opacity="0.4980392156862745" stroke-width="1.5" stroke-linejoin="round" stroke-linecap="round" fill="none" d="
M 42.54368133544922 47.24368133544922
Q 42.90927658081055 47.94674911499023 43.72483520507813 48.64981689453125 45.38407516479492 50.02782974243164 47.605769348144534 50.02782974243164"/>
</defs>

<g id="Layer_1">
<g transform="matrix( 0.5624542236328125, 0, 0, 0.5624542236328125, 0,0) ">
<use xlink:href="#Layer0_0_MEMBER_0_MEMBER_0_FILL"/>
</g>

<g transform="matrix( 0.5624542236328125, 0, 0, 0.5624542236328125, 0,0) ">
<use xlink:href="#Layer0_0_MEMBER_0_MEMBER_1_FILL"/>
</g>

<g transform="matrix( 1, 0, 0, 1, 0,0) ">
<use xlink:href="#Layer0_0_MEMBER_1_FILL"/>
</g>

<g transform="matrix( 0.5624847412109375, 0, 0, 0.5624847412109375, 26.95,28.2) ">
<use xlink:href="#Layer0_0_MEMBER_2_MEMBER_0_1_STROKES" transform="matrix( 1.7778167724609375, 0, 0, 1.7778167724609375, -47.9,-50.1) "/>
</g>

<g transform="matrix( 0.5624847412109375, 0, 0, 0.5624847412109375, 26.05,33.25) ">
<use xlink:href="#Layer0_0_MEMBER_3_MEMBER_0_1_STROKES" transform="matrix( 1.7778167724609375, 0, 0, 1.7778167724609375, -46.3,-59.1) "/>
</g>

<g transform="matrix( 0.5624542236328125, 0, 0, 0.5624542236328125, 21.6,51.35) ">
<use xlink:href="#Layer0_0_MEMBER_4_MEMBER_0_MEMBER_0_1_STROKES" transform="matrix( 1.7779083251953125, 0, 0, 1.7779083251953125, -38.4,-91.25) "/>
</g>

<g transform="matrix( 0.5624542236328125, 0, 0, 0.5624542236328125, 23.05,46.4) ">
<use xlink:href="#Layer0_0_MEMBER_4_MEMBER_0_MEMBER_1_1_STROKES" transform="matrix( 1.7779083251953125, 0, 0, 1.7779083251953125, -40.95,-82.45) "/>
</g>

<g transform="matrix( 0.5624542236328125, 0, 0, 0.5624542236328125, 42.25,51.35) ">
<use xlink:href="#Layer0_0_MEMBER_4_MEMBER_1_MEMBER_0_1_STROKES" transform="matrix( 1.7779083251953125, 0, 0, 1.7779083251953125, -75.1,-91.25) "/>
</g>

<g transform="matrix( 0.5624542236328125, 0, 0, 0.5624542236328125, 41.7,46.4) ">
<use xlink:href="#Layer0_0_MEMBER_4_MEMBER_1_MEMBER_1_1_STROKES" transform="matrix( 1.7779083251953125, 0, 0, 1.7779083251953125, -74.1,-82.45) "/>
</g>

<g transform="matrix( 0.5624847412109375, 0, 0, 0.5624847412109375, 0,0) ">
<use xlink:href="#Layer0_0_MEMBER_5_FILL"/>
</g>

<g transform="matrix( 0.5624847412109375, 0, 0, 0.5624847412109375, 0,0) ">
<use xlink:href="#Layer0_0_MEMBER_6_FILL"/>
</g>

<g transform="matrix( 0.5624847412109375, 0, 0, 0.5624847412109375, 0,0) ">
<use xlink:href="#Layer0_0_MEMBER_7_FILL"/>
</g>

<g transform="matrix( 0.5624847412109375, 0, 0, 0.5624847412109375, 0,0) ">
<use xlink:href="#Layer0_0_MEMBER_8_FILL"/>
</g>

<g transform="matrix( 0.5624847412109375, 0, 0, 0.5624847412109375, 0,0) ">
<use xlink:href="#Layer0_0_MEMBER_9_FILL"/>
</g>

<g transform="matrix( 0.5624847412109375, 0, 0, 0.5624847412109375, 0,0) ">
<use xlink:href="#Layer0_0_MEMBER_10_FILL"/>
</g>

<g transform="matrix( 0.5624847412109375, 0, 0, 0.5624847412109375, 0,0) ">
<use xlink:href="#Layer0_0_MEMBER_11_FILL"/>
</g>

<g transform="matrix( 0.5624847412109375, 0, 0, 0.5624847412109375, 0,0) ">
<use xlink:href="#Layer0_0_MEMBER_12_FILL"/>
</g>

<g transform="matrix( 0.5624847412109375, 0, 0, 0.5624847412109375, 0,0) ">
<use xlink:href="#Layer0_0_MEMBER_13_FILL"/>
</g>

<g transform="matrix( 0.5624847412109375, 0, 0, 0.5624847412109375, 0,0) ">
<use xlink:href="#Layer0_0_MEMBER_14_FILL"/>
</g>

<g transform="matrix( 0.5624847412109375, 0, 0, 0.5624847412109375, 0,0) ">
<use xlink:href="#Layer0_0_MEMBER_15_FILL"/>
</g>
</g>
</svg>
